asset/images/icons/icon-socials-facebook.svg

<svg width="32" height="32" viewBox="0 0 32 32" fill="none" xmlns="http://www.w3.org/2000/svg">
<rect width="32" height="32" rx="16" fill="white" fill-opacity="0.08"/>
<path d="M16 9C12.1342 9 9 12.1531 9 16.0423C9 19.5567 11.5595 22.4697 14.9065 23V18.0784H13.1283V16.0423H14.9065V14.4907C14.9065 12.7243 15.9517 11.7503 17.55 11.7503C18.3158 11.7503 19.1181 11.8876 19.1181 11.8876V13.6195H18.2332C17.3651 13.6195 17.0935 14.1632 17.0935 14.7203V16.0408H19.0334L18.7233 18.077H17.0935V22.9986C20.4405 22.4711 23 19.5574 23 16.0423C23 12.1531 19.8658 9 16 9Z" fill="#D0BC7A"/>
<rect x="0.5" y="0.5" width="31" height="31" rx="15.5" stroke="white" stroke-opacity="0.16"/>
</svg>

<svg width="32" height="32" viewBox="0 0 32 32" fill="none" xmlns="http://www.w3.org/2000/svg"><rect width="32" height="32" rx="16" fill="#fff" fill-opacity=".08"/><path d="M16 9c-3.866 0-7 3.153-7 7.042 0 3.515 2.56 6.428 5.906 6.958v-4.922h-1.778v-2.036h1.778v-1.551c0-1.767 1.046-2.74 2.644-2.74.766 0 1.568.137 1.568.137v1.732h-.885c-.868 0-1.14.543-1.14 1.1v1.32h1.94l-.31 2.037h-1.63v4.922C20.441 22.47 23 19.557 23 16.042 23 12.153 19.866 9 16 9z" fill="#D0BC7A"/><rect x=".5" y=".5" width="31" height="31" rx="15.5" stroke="#fff" stroke-opacity=".16"/></svg>
